X: 302
T: Roscoe
B: canberra pickers and fiddlers
B: tunes
M:C
L:1/8
Q: 1/4=100
K:G
V:1 
e(g | g2) gg edBA | dB A2G2 (g2 | g2) g2 e g3 | a3b a2 (b2 | 
b)aba gedB | c3 d c2 A(B | B)dBB A F3 | G3A G2 :|
|: DF | G2B2 A B3 | c3d c2 (B2 | B)cBA G F3 | D3 E D2 DF | 
G2B2 A B3 | c3 d c2 (B2 | B)dBB A F3 | G3A G2 :|
% abcbook-tune_id 63da5934cefbfb41c60e0d0c
% abcbook-tune_composer_id 
% abcbook-link-0 https://www.youtube.com/watch?v=cVefHCwfuDk
% abcbook-boost 0
% abcbook-difficulty 0
% abcbook-tags canberra pickers and fiddlers,old time tunes,© free
% abcbook-tablature 
% abcbook-transpose 
% abcbook-tuning GDAD
% abcbook-lastupdated 1733821091057
% abcbook-src-url https://tunebook.net/scrape/tunes.abc
% abcbook-soundfonts 
% abcbook-repeats 1
%%gchordfont "itim-music,Itim" 20

